X: 1
T: Korn Likker
P: piffero primo b0016
O: Bill Krug
%R: march
F: http://ancients.sudburymuster.org/mus/ssp/pdf/billybudF.pdf
Z: 2019 John Chambers <jc:trillian.mit.edu>
M: 2/4
L: 1/16
K: D
ag |\
fad2 d2ef | g2e2 e3c | c2c2 cABc | dcde fgag |\
fad2 d2ef | g2e2 e4 | A2ce gece | e2d2 d2 :|
|: df |\
a3b a2f2 | g2gf e2Ae | g3a g2e2 | f2fe d2df |\
a3b a2f2 | g2gf e4 | A2ce gece | e2d2 d2 :|


